X:1
T:Title
%%score { 1 | 2 }
L:1/8
M:4/4
K:A
V:1 treble nm="Grand Piano"
V:2 bass 
V:1
 z4 z2 z[Q:1/4=100] E | [Ec]>[Ec] [Ec]>[EB] [EA]3 [EA] | [FB]>[A,FA] [A,FA]>[A,DF] [A,CE]4 | %3
 [A,CE]2 [CEA]>[CEA] [CEA][CEA][B,EG][A,EA] | B6 z E | [Ec]>[Ec] [Ec]>[EB] [EA]3 [EA] | %6
 [FB]>[A,FA] [A,FA]>[A,DF] [A,CE]4 | [A,CE]2 [CEA]>[CEA] AGFG | [CA]6 z2 | [Ec]2 [Ec]>c ccBc | %10
 [CA]6 z2 | [Ec]2 [Ec]>[EB] [EA][EA][^DG][DA] | B6 z E | [Ec]>[Ec] c>B A3 A | %14
 [FB][FA][FA][DF] [CE]4 | E2 A>A AGFG | [CA]6 z2 |] %17
V:2
 z4 z2 z E, | [A,,A,]>[A,,A,] [A,,A,]>[B,,G,] [C,A,]3 [C,A,] | [D,A,]>D, D,>D, A,,4 | %3
 A,,2 A,,>A,, A,,A,,B,,C, | [E,G,E]6 z [E,G,] | [A,,A,]>[A,,A,] [A,,A,]>[B,,G,] [C,A,]3 [C,A,] | %6
 [D,A,]>D, D,>D, A,,4 | A,,2 A,,>A,, [E,B,E][E,B,E][E,A,D][E,B,D] | [A,,A,]6 z2 | %9
 [A,,A,]2 [C,A,]>[E,A,E] [A,E][A,E][E,G,D][E,G,D] | [A,,A,]6 z2 | %11
 [A,,A,]2 [A,,A,]>[D,G,] [C,A,][C,A,][B,,B,][B,,A,] | [E,G,E]6 z [E,G,] | %13
 [A,,A,]>[C,A,] [E,A,E]>[E,G,D] [F,A,C]3 [F,CF] | [D,D][D,D][D,D][D,A,] [A,,A,]4 | %15
 [A,C]2 [A,CE]>[A,CE] [E,B,D][E,B,D][E,A,D][E,B,D] | [A,,A,]6 z2 |] %17

